X: 6
M: C|
L: 1/8
K: C
eg2^f g2ag | ec2B c2d2 | ea2g a2ag | ecAB c2cd |
eg2^f g2ag | ec2B c2G2 | A^GAB cBcA | GED_B, C2 |]


